apps/site/public/icons/companies/lovable.svg

<svg width="48" height="48" viewBox="0 0 48 48" fill="none" xmlns="http://www.w3.org/2000/svg">
<mask id="mask0_5816_27409" style="mask-type:alpha" maskUnits="userSpaceOnUse" x="4" y="4" width="40" height="40">
<path fill-rule="evenodd" clip-rule="evenodd" d="M16.1347 4C22.6518 4 27.9374 9.29762 27.9374 15.8347V20.3327H31.8657C38.3827 20.3327 43.6684 25.6303 43.6684 32.1673C43.6684 38.7044 38.3847 44 31.8657 44H4.33203V15.8327C4.33203 9.29962 9.61566 4 16.1347 4Z" fill="url(#paint0_linear_5816_27409)"/>
</mask>
<g mask="url(#mask0_5816_27409)">
<g filter="url(#filter0_f_5816_27409)">
<path d="M21.588 51.9804C36.2943 51.9804 48.216 40.0587 48.216 25.3524C48.216 10.6461 36.2943 -1.27563 21.588 -1.27563C6.88174 -1.27563 -5.04004 10.6461 -5.04004 25.3524C-5.04004 40.0587 6.88174 51.9804 21.588 51.9804Z" fill="#4B73FF"/>
</g>
<g filter="url(#filter1_f_5816_27409)">
<path d="M24.5133 37.367C43.3477 37.367 58.616 25.4452 58.616 10.739C58.616 -3.96729 43.3477 -15.8891 24.5133 -15.8891C5.67893 -15.8891 -9.58936 -3.96729 -9.58936 10.739C-9.58936 25.4452 5.67893 37.367 24.5133 37.367Z" fill="#FF66F4"/>
</g>
<g filter="url(#filter2_f_5816_27409)">
<path d="M30.0748 29.1147C44.7811 29.1147 56.7029 18.6447 56.7029 5.72921C56.7029 -7.18624 44.7811 -17.6563 30.0748 -17.6563C15.3686 -17.6563 3.44678 -7.18624 3.44678 5.72921C3.44678 18.6447 15.3686 29.1147 30.0748 29.1147Z" fill="#FF0105"/>
</g>
<g filter="url(#filter3_f_5816_27409)">
<path d="M24.9875 26.7478C33.8322 26.7478 41.0023 19.5777 41.0023 10.733C41.0023 1.88824 33.8322 -5.28183 24.9875 -5.28183C16.1427 -5.28183 8.97266 1.88824 8.97266 10.733C8.97266 19.5777 16.1427 26.7478 24.9875 26.7478Z" fill="#FE7B02"/>
</g>
</g>
<defs>
<filter id="filter0_f_5816_27409" x="-16.9747" y="-13.2103" width="77.1251" height="77.1253" filterUnits="userSpaceOnUse" color-interpolation-filters="sRGB">
<feFlood flood-opacity="0" result="BackgroundImageFix"/>
<feBlend mode="normal" in="SourceGraphic" in2="BackgroundImageFix" result="shape"/>
<feGaussianBlur stdDeviation="5.96732" result="effect1_foregroundBlur_5816_27409"/>
</filter>
<filter id="filter1_f_5816_27409" x="-21.524" y="-27.8237" width="92.0748" height="77.1253" filterUnits="userSpaceOnUse" color-interpolation-filters="sRGB">
<feFlood flood-opacity="0" result="BackgroundImageFix"/>
<feBlend mode="normal" in="SourceGraphic" in2="BackgroundImageFix" result="shape"/>
<feGaussianBlur stdDeviation="5.96732" result="effect1_foregroundBlur_5816_27409"/>
</filter>
<filter id="filter2_f_5816_27409" x="-8.48786" y="-29.5909" width="77.1251" height="70.6403" filterUnits="userSpaceOnUse" color-interpolation-filters="sRGB">
<feFlood flood-opacity="0" result="BackgroundImageFix"/>
<feBlend mode="normal" in="SourceGraphic" in2="BackgroundImageFix" result="shape"/>
<feGaussianBlur stdDeviation="5.96732" result="effect1_foregroundBlur_5816_27409"/>
</filter>
<filter id="filter3_f_5816_27409" x="-2.96198" y="-17.2165" width="55.8991" height="55.8989" filterUnits="userSpaceOnUse" color-interpolation-filters="sRGB">
<feFlood flood-opacity="0" result="BackgroundImageFix"/>
<feBlend mode="normal" in="SourceGraphic" in2="BackgroundImageFix" result="shape"/>
<feGaussianBlur stdDeviation="5.96732" result="effect1_foregroundBlur_5816_27409"/>
</filter>
<linearGradient id="paint0_linear_5816_27409" x1="17.5701" y1="11.0288" x2="29.5547" y2="43.984" gradientUnits="userSpaceOnUse">
<stop offset="0.025" stop-color="#FF8E63"/>
<stop offset="0.56" stop-color="#FF7EB0"/>
<stop offset="0.95" stop-color="#4B73FF"/>
</linearGradient>
</defs>
</svg>

<svg xmlns="http://www.w3.org/2000/svg" width="48" height="48" fill="none" viewBox="0 0 48 48"><mask id="b" width="40" height="40" x="4" y="4" maskUnits="userSpaceOnUse" style="mask-type:alpha"><path fill="url(#a)" fill-rule="evenodd" d="M16.135 4c6.517 0 11.802 5.298 11.802 11.835v4.498h3.929c6.517 0 11.802 5.297 11.802 11.834S38.385 44 31.866 44H4.332V15.833C4.332 9.3 9.616 4 16.135 4" clip-rule="evenodd"/></mask><g mask="url(#b)"><g filter="url(#c)"><path fill="#4b73ff" d="M21.588 51.98c14.706 0 26.628-11.921 26.628-26.628 0-14.706-11.922-26.628-26.628-26.628S-5.04 10.646-5.04 25.352c0 14.707 11.922 26.628 26.628 26.628"/></g><g filter="url(#d)"><path fill="#ff66f4" d="M24.513 37.367c18.835 0 34.103-11.922 34.103-26.628S43.348-15.889 24.513-15.889C5.68-15.89-9.589-3.967-9.589 10.739S5.679 37.367 24.513 37.367"/></g><g filter="url(#e)"><path fill="#ff0105" d="M30.075 29.115c14.706 0 26.628-10.47 26.628-23.386S44.78-17.656 30.075-17.656 3.447-7.186 3.447 5.729s11.922 23.386 26.628 23.386"/></g><g filter="url(#f)"><path fill="#fe7b02" d="M24.988 26.748c8.844 0 16.014-7.17 16.014-16.015S33.832-5.282 24.987-5.282c-8.844 0-16.014 7.17-16.014 16.015s7.17 16.015 16.014 16.015"/></g></g><defs><filter id="c" width="77.125" height="77.125" x="-16.975" y="-13.21" color-interpolation-filters="sRGB" filterUnits="userSpaceOnUse"><feFlood flood-opacity="0" result="BackgroundImageFix"/><feBlend in="SourceGraphic" in2="BackgroundImageFix" result="shape"/><feGaussianBlur result="effect1_foregroundBlur_5816_27409" stdDeviation="5.967"/></filter><filter id="d" width="92.075" height="77.125" x="-21.524" y="-27.824" color-interpolation-filters="sRGB" filterUnits="userSpaceOnUse"><feFlood flood-opacity="0" result="BackgroundImageFix"/><feBlend in="SourceGraphic" in2="BackgroundImageFix" result="shape"/><feGaussianBlur result="effect1_foregroundBlur_5816_27409" stdDeviation="5.967"/></filter><filter id="e" width="77.125" height="70.64" x="-8.488" y="-29.591" color-interpolation-filters="sRGB" filterUnits="userSpaceOnUse"><feFlood flood-opacity="0" result="BackgroundImageFix"/><feBlend in="SourceGraphic" in2="BackgroundImageFix" result="shape"/><feGaussianBlur result="effect1_foregroundBlur_5816_27409" stdDeviation="5.967"/></filter><filter id="f" width="55.899" height="55.899" x="-2.962" y="-17.216" color-interpolation-filters="sRGB" filterUnits="userSpaceOnUse"><feFlood flood-opacity="0" result="BackgroundImageFix"/><feBlend in="SourceGraphic" in2="BackgroundImageFix" result="shape"/><feGaussianBlur result="effect1_foregroundBlur_5816_27409" stdDeviation="5.967"/></filter><linearGradient id="a" x1="17.57" x2="29.555" y1="11.029" y2="43.984" gradientUnits="userSpaceOnUse"><stop offset=".025" stop-color="#ff8e63"/><stop offset=".56" stop-color="#ff7eb0"/><stop offset=".95" stop-color="#4b73ff"/></linearGradient></defs></svg>
